X: 420
T:Love at the endings
M:4/4
L:1/8
R:reel
C:Ed Reavy
Z:Terry McGee
N:Transcription headers added by Steve Mansfield
K:D
DEFA B2dB|AF~F2 AFEF|DEFA B2AF|GEFD B,EEF|
DEFA B2dB|AF~F2 ABde|fgfe dfec|1 dBAF D2FE:|2 dBAF D3g||
|:fgfe defg|afbf afeg|~f3e dfbf|afdf e2de|
fgfe dcdB|AF~F2 ABde|~f3e dfec|1 dBAF D3g:|2 dBAF D2FE||
"Variations"
|:DEFA BAdB|AF~F2 AFEF|DEFA ~B3A|FEED E2FE|
DEFA BAdB|AF~F2 ABde|f2fe defe|1 dBAF D2FE:|2 dBAF D3g||
|:f2fe defg|a2bf afed|~f3e defg|~a3f e2de|
~f3e d2dB|A2AF ABde|~f3e defe|1 dBAF D3g:|2 dBAF D2FE||
<end>
<start>
